lib/logo_tmp/nrk-logo-nrk-trafikk-title-below-on-light.svg

<svg width="52" height="41" viewBox="0 0 52 41" fill="none" xmlns="http://www.w3.org/2000/svg">
<path d="M0 18.0005V6.00158H3.93719V18.0005H0ZM9.29381 7.91127L11.5581 18.0005H7.24917L4.54549 6.00158H6.96218C7.51635 5.99439 8.05406 6.18974 8.4745 6.55088C8.89562 6.89687 9.18495 7.37719 9.29381 7.91127ZM12.1495 18.0005V6.00158H16.0867V18.0005H12.1495ZM19.0605 10.5646C18.6362 10.5687 18.2188 10.4577 17.8525 10.2435C17.4912 10.0346 17.1911 9.73445 16.9823 9.37309C16.7678 9.00682 16.6568 8.58925 16.661 8.16481C16.6561 7.74295 16.7672 7.32787 16.9823 6.96492C17.1933 6.60748 17.4931 6.31058 17.8525 6.10301C18.2189 5.88899 18.6362 5.778 19.0605 5.78187C19.4822 5.77733 19.8971 5.88842 20.2602 6.10301C20.616 6.3124 20.9127 6.60905 21.122 6.96492C21.3368 7.32797 21.4479 7.74298 21.4433 8.16481C21.4473 8.58922 21.3363 9.00672 21.122 9.37309C20.9149 9.73286 20.6179 10.0328 20.2602 10.2435C19.8971 10.4585 19.4819 10.5696 19.0599 10.5646H19.0605ZM22.0516 18.0005V6.00158H25.9892V18.0005H22.0516ZM30.9737 12.5587C30.9848 12.5704 31.0693 12.7084 31.2272 12.9728C31.3851 13.2371 31.5906 13.5752 31.8439 13.9868C32.0974 14.3982 32.3649 14.8347 32.6463 15.2965C32.9278 15.7582 33.1926 16.1948 33.4408 16.6063C33.6881 17.0177 33.9697 17.4824 34.2857 18.0005H29.9598C29.6893 17.5611 29.4441 17.164 29.2245 16.8091C29.0048 16.4542 28.7713 16.0711 28.5238 15.6598C28.2758 15.249 28.0306 14.849 27.7882 14.46C27.5458 14.0709 27.3375 13.7301 27.1633 13.4375C26.9883 13.1448 26.8671 12.9476 26.7997 12.846C26.6325 12.5939 26.5336 12.3028 26.5127 12.001C26.5294 11.7114 26.6226 11.4315 26.7828 11.1896C26.8504 11.0769 26.9743 10.8769 27.1545 10.5896C27.3348 10.3023 27.546 9.96154 27.7882 9.56721C28.0304 9.17288 28.2756 8.77009 28.5238 8.35886C28.772 7.94763 29.0056 7.56172 29.2245 7.20119C29.4445 6.84104 29.6897 6.44107 29.9598 6.0013H34.2857L30.9396 11.46C30.8361 11.6221 30.7777 11.8088 30.7706 12.001C30.7818 12.2028 30.8522 12.3968 30.9731 12.5587H30.9737Z" fill="#0A2343"/>
<path d="M9.55338 23.0037H0V24.4906H3.89247V34.9997H5.6773V24.4906H9.5531L9.55338 23.0037Z" fill="#1767CE"/>
<path d="M13.0382 26.3239C12.7204 26.4088 12.4168 26.5398 12.1372 26.7125C11.8473 26.8925 11.5793 27.1051 11.3383 27.3461C11.2981 27.386 11.259 27.4306 11.2193 27.4725V26.2141L9.48544 26.4675V34.9998H11.2193V28.6166C11.3481 28.5272 11.4815 28.4444 11.6188 28.3686C11.7887 28.2753 11.9646 28.1933 12.1455 28.1233C12.3214 28.0557 12.4996 27.9966 12.6812 27.9462C12.8678 27.8944 13.0582 27.8575 13.2507 27.8361C13.4567 27.8134 13.6642 27.8078 13.8712 27.8192L14.0751 26.231C13.7267 26.2062 13.3766 26.2376 13.0382 26.3239Z" fill="#1767CE"/>
<path d="M22.7957 33.9351C22.6714 33.9465 22.5462 33.9279 22.4308 33.8808C22.3154 33.8338 22.2131 33.7597 22.1327 33.6648C21.9751 33.3941 21.9095 33.08 21.9457 32.7693L21.9797 29.2888C21.9834 28.9239 21.9377 28.5602 21.8437 28.2075C21.7612 27.8981 21.623 27.6062 21.4357 27.3458C21.2466 27.0912 21.0064 26.8783 20.7303 26.7207C20.4095 26.5395 20.0627 26.4085 19.7019 26.3321C19.2607 26.2376 18.8102 26.1924 18.3589 26.1972C18.0009 26.1969 17.6434 26.2194 17.2883 26.2645C16.9526 26.3064 16.6203 26.3714 16.2936 26.4588C15.9908 26.5404 15.6929 26.6391 15.4014 26.7545L15.1971 28.1906C15.4804 28.0892 15.7496 28.0048 16.0046 27.9372C16.2596 27.8696 16.506 27.8133 16.744 27.7682C16.9772 27.7238 17.2127 27.6928 17.4495 27.6756C17.6816 27.6585 17.9112 27.65 18.1383 27.65C18.4849 27.6426 18.8309 27.6824 19.1667 27.7682C19.4115 27.8292 19.6367 27.9514 19.8209 28.123C19.9848 28.2901 20.102 28.4969 20.1608 28.7228C20.2336 29.0014 20.268 29.2885 20.2631 29.5763L20.2611 29.9987L18.274 30.1325C17.5944 30.1515 16.9248 30.3006 16.3021 30.5718C15.8361 30.7745 15.4338 31.0984 15.1376 31.5095C14.8864 31.8753 14.753 32.3084 14.7551 32.7513C14.752 33.1669 14.8543 33.5766 15.0526 33.9425C15.2606 34.3183 15.5735 34.6263 15.9536 34.8295C16.4173 35.0692 16.9356 35.1856 17.458 35.1674C17.9475 35.1786 18.4349 35.0983 18.8947 34.9309C19.2921 34.7763 19.6556 34.5468 19.9653 34.255C20.0829 34.1429 20.1945 34.0248 20.2996 33.9011C20.3328 34.076 20.395 34.2441 20.4838 34.3986C20.6352 34.6574 20.8682 34.8593 21.1467 34.9731C21.4546 35.096 21.784 35.1563 22.1157 35.1505C22.2177 35.1505 22.3169 35.1477 22.4134 35.1421C22.5079 35.1366 22.6018 35.1225 22.6936 35.0998C22.7843 35.0773 22.8662 35.0576 22.9402 35.0407C23.0067 35.0259 23.0721 35.0062 23.1356 34.9816L23.3229 33.8495C23.2289 33.8814 23.132 33.9041 23.0336 33.9171C22.9547 33.9281 22.8753 33.9341 22.7957 33.9351ZM20.2478 32.9087C20.1613 33.0053 20.0665 33.0944 19.9645 33.1748C19.7802 33.3196 19.5807 33.4442 19.3695 33.5465C19.1593 33.6482 18.9364 33.7221 18.7068 33.7662C18.4688 33.8119 18.2269 33.8345 17.9844 33.8338C17.7073 33.8417 17.4317 33.7898 17.1767 33.6817C16.9693 33.5923 16.7944 33.442 16.6755 33.2509C16.5576 33.0484 16.4987 32.8173 16.5055 32.5835C16.4891 32.3018 16.5668 32.0226 16.7264 31.7894C16.9115 31.5747 17.1623 31.4263 17.4404 31.367C17.8747 31.2654 18.3204 31.22 18.7664 31.2318H20.2549L20.2478 32.9087Z" fill="#1767CE"/>
<path d="M29.1954 22.3787C29.0198 22.3449 28.8413 22.3195 28.66 22.3026C28.4787 22.2857 28.286 22.2773 28.082 22.2773C27.7127 22.2749 27.3454 22.332 26.9944 22.4462C26.6608 22.5553 26.3558 22.7372 26.1019 22.9785C25.8392 23.2326 25.6361 23.5412 25.507 23.8824C25.3567 24.2936 25.2846 24.729 25.2945 25.1664V26.3829H24.0196V27.7008H25.2945V34.9997H27.0284V27.7008H29.4082V26.3829H27.0284V24.9806C27.0247 24.7878 27.0564 24.596 27.1219 24.4146C27.1774 24.2613 27.2674 24.1226 27.3851 24.0091C27.5083 23.8965 27.6572 23.8154 27.8189 23.7725C28.0097 23.72 28.207 23.6944 28.4051 23.6965C28.5413 23.6965 28.6711 23.7024 28.7963 23.7134C28.9215 23.7244 29.0425 23.7416 29.1618 23.7641C29.281 23.7866 29.3938 23.8091 29.5017 23.8317C29.5978 23.8507 29.6917 23.879 29.7822 23.9162L29.7142 22.5138C29.5445 22.4575 29.3712 22.4124 29.1954 22.3787Z" fill="#1767CE"/>
<path d="M31.0907 34.9998H32.8245V26.2141L31.0907 26.4675V34.9998Z" fill="#1767CE"/>
<path d="M32.5781 22.6742C32.4017 22.567 32.1984 22.5114 31.9916 22.5137C31.7823 22.512 31.5764 22.5675 31.3967 22.6742C31.2194 22.7774 31.0705 22.9225 30.9632 23.0966C30.8552 23.2719 30.7993 23.474 30.8017 23.6795C30.7999 23.8876 30.8557 24.0922 30.9632 24.2708C31.0671 24.4476 31.2168 24.5934 31.3967 24.6932C31.5782 24.7947 31.7834 24.8471 31.9916 24.8453C32.1973 24.8477 32.3999 24.7952 32.5781 24.6932C32.753 24.5926 32.8969 24.4466 32.9946 24.2708C33.0967 24.0904 33.1495 23.8865 33.1476 23.6795C33.1501 23.4751 33.0972 23.2737 32.9946 23.0966C32.8936 22.9233 32.7504 22.778 32.5781 22.6742Z" fill="#1767CE"/>
<path d="M42.8709 26.3829H40.746L37.8373 29.5593H37.2103V22.2434L35.4764 22.4969V34.9997H37.2103V30.8602H37.2386L40.7118 34.9997H42.9556L38.8323 30.3815L42.8709 26.3829Z" fill="#1767CE"/>
<path d="M51.7946 26.3829H49.6697L46.7609 29.5593H46.1339V22.2434L44.4001 22.4969V34.9997H46.1339V30.8602H46.1623L49.6355 34.9997H51.8793L47.7559 30.3815L51.7946 26.3829Z" fill="#1767CE"/>
</svg>

<svg xmlns="http://www.w3.org/2000/svg" viewBox="0 0 52 41"><path fill="#0A2343" d="M0 18V6.002h3.937V18H0ZM9.294 7.911l2.264 10.09H7.25L4.545 6h2.417a2.276 2.276 0 0 1 1.513.55c.42.346.71.826.819 1.36Zm2.855 10.09V6h3.938v12h-3.938Zm6.912-7.436a2.382 2.382 0 0 1-2.4-2.4 2.301 2.301 0 0 1 .321-1.2 2.41 2.41 0 0 1 3.278-.862c.356.21.653.506.862.862.215.363.326.778.321 1.2a2.35 2.35 0 0 1-.321 1.208 2.4 2.4 0 0 1-.862.87 2.302 2.302 0 0 1-1.2.322ZM22.05 18V6.002h3.938V18h-3.937Zm8.923-5.441c.01.011.095.15.253.414s.364.602.617 1.014a309.436 309.436 0 0 1 1.597 2.62c.247.41.529.875.845 1.393H29.96c-.27-.439-.516-.836-.736-1.19-.22-.356-.453-.739-.7-1.15-.248-.411-.493-.811-.736-1.2-.242-.39-.45-.73-.625-1.023a18.04 18.04 0 0 0-.363-.591 1.747 1.747 0 0 1-.287-.845c.016-.29.11-.57.27-.811.067-.113.191-.313.371-.6a182.106 182.106 0 0 0 1.37-2.23l.7-1.159.736-1.2h4.326L30.94 11.46a1.08 1.08 0 0 0-.17.541c.012.202.082.396.203.558Z"/><path fill="#1767CE" d="M9.553 23.004H0v1.487h3.892V35h1.785V24.49h3.876v-1.486ZM13.038 26.324a3.37 3.37 0 0 0-.9.388c-.29.18-.559.393-.8.634-.04.04-.079.085-.119.127v-1.259l-1.734.254V35h1.734v-6.383a4.372 4.372 0 0 1 .926-.493 5.86 5.86 0 0 1 .536-.178 3.627 3.627 0 0 1 1.19-.127l.204-1.588a3.26 3.26 0 0 0-1.037.093ZM22.796 33.935a.778.778 0 0 1-.663-.27 1.447 1.447 0 0 1-.187-.896l.034-3.48a4.04 4.04 0 0 0-.136-1.082 2.64 2.64 0 0 0-.408-.861 2.297 2.297 0 0 0-.706-.625 3.613 3.613 0 0 0-1.028-.389 6.103 6.103 0 0 0-1.343-.135 8.44 8.44 0 0 0-1.07.068 7.39 7.39 0 0 0-.995.194c-.303.081-.601.18-.893.296l-.204 1.436a10.035 10.035 0 0 1 1.547-.423c.233-.044.469-.075.706-.092.232-.017.461-.026.688-.026.347-.007.693.032 1.029.118.244.061.47.183.654.355.164.167.281.374.34.6.073.278.107.566.102.853l-.002.423-1.987.134a5.31 5.31 0 0 0-1.972.439 2.822 2.822 0 0 0-1.164.938 2.175 2.175 0 0 0-.383 1.241c-.003.416.1.826.298 1.192.208.375.52.683.9.887.464.24.983.356 1.505.337.49.012.977-.069 1.437-.236.397-.155.76-.384 1.07-.676.118-.112.23-.23.335-.354.033.175.095.343.184.498.151.258.384.46.663.574.308.123.637.183.969.178.102 0 .2-.003.297-.009a1.54 1.54 0 0 0 .28-.042l.247-.06c.067-.014.132-.034.196-.058l.187-1.133a1.52 1.52 0 0 1-.29.068 1.895 1.895 0 0 1-.237.018Zm-2.548-1.026a2.25 2.25 0 0 1-.284.266c-.184.145-.383.27-.595.372-.21.101-.433.175-.662.22-.238.045-.48.067-.723.067a1.929 1.929 0 0 1-.807-.152 1.105 1.105 0 0 1-.502-.431 1.254 1.254 0 0 1-.17-.667c-.016-.282.062-.561.221-.795a1.3 1.3 0 0 1 .714-.422c.435-.102.88-.147 1.326-.135h1.489l-.007 1.677ZM29.195 22.379a5.563 5.563 0 0 0-1.113-.102 3.443 3.443 0 0 0-1.088.17 2.36 2.36 0 0 0-1.487 1.435c-.15.412-.222.847-.213 1.284v1.217H24.02V27.7h1.274V35h1.734v-7.3h2.38v-1.317h-2.38V24.98a1.577 1.577 0 0 1 .094-.566c.055-.154.145-.292.263-.406.123-.113.272-.194.434-.236.19-.053.388-.079.586-.076a3.722 3.722 0 0 1 .757.068c.119.022.232.044.34.067.096.019.19.047.28.084l-.068-1.402a4.097 4.097 0 0 0-.519-.135ZM31.09 35h1.735v-8.786l-1.734.254V35ZM32.578 22.674a1.106 1.106 0 0 0-.586-.16 1.147 1.147 0 0 0-.595.16 1.244 1.244 0 0 0-.434.423 1.087 1.087 0 0 0-.161.582 1.149 1.149 0 0 0 .595 1.014c.181.102.386.154.595.152.205.003.408-.05.586-.152.175-.1.319-.246.417-.422.102-.18.155-.384.153-.591a1.135 1.135 0 0 0-.153-.583 1.197 1.197 0 0 0-.417-.423ZM42.87 26.383h-2.124l-2.909 3.176h-.627v-7.316l-1.734.254V35h1.734v-4.14h.029L40.712 35h2.244l-4.124-4.619 4.039-3.998ZM51.795 26.383H49.67l-2.91 3.176h-.626v-7.316l-1.734.254V35h1.734v-4.14h.028L49.636 35h2.243l-4.123-4.619 4.039-3.998Z"/></svg>
